lib/healthicons/icons/solid/places/palm_branches_roof.svg

<svg fill="none" height="48" viewBox="0 0 48 48" width="48" xmlns="http://www.w3.org/2000/svg"><g fill="#333"><path d="m25.381 9.54292c-.7605-.7239-2.0015-.72389-2.762 0l-15.28344 14.54928c-.48157.4584-.46226 1.1014.1716 1.3449 1.63726.6289 5.85884 1.5629 16.49284 1.5629s14.8556-.934 16.4928-1.5629c.6339-.2435.6532-.8865.1716-1.3449z"/><path clip-rule="evenodd" d="m23.9881 11.001-13.7618 13.1006c2.2617.4424 6.3973.8984 13.7737.8984s11.512-.456 13.7737-.8984l-13.7618-13.1006c-.0033-.0006-.0073-.001-.0119-.001s-.0086.0004-.0119.001zm16.6763 13.0912c.4816.4584.4623 1.1014-.1716 1.3449-1.6372.6289-5.8588 1.5629-16.4928 1.5629s-14.85558-.934-16.49284-1.5629c-.63386-.2435-.65317-.8865-.1716-1.3449l15.28344-14.54928c.7605-.72389 2.0015-.7239 2.762 0z" fill-rule="evenodd"/><path clip-rule="evenodd" d="m12 29.4071c2.6019.3356 6.4173.593 12 .593s9.3981-.2574 12-.593v11.1586c0 1.4343-8 1.4343-8 1.4343v-5c0-1.9124-1.6923-4-4-4s-4 2.0876-4 4v5s-8 0-8-1.4343z" fill-rule="evenodd"/><path d="m23.0035 6.83045c-.0486-.44704.4115-.83045.9965-.83045s1.0451.38341.9965.83045l-.408 3.75435c-.0255.2347-.2814.4152-.5885.4152s-.563-.1805-.5885-.4152z"/><path d="m26.0001 7.18734c.177-.39087.7056-.50858 1.1449-.25495s.6017.77026.3517 1.11901l-2.0995 2.9288c-.1312.1831-.4096.2215-.6402.0884-.2306-.1332-.3366-.3934-.2436-.5986z"/><path d="m22.167 7.19099c-.1782-.39284-.7077-.51223-1.147-.2586s-.6007.77195-.3496 1.12266l2.109 2.94535c.1318.1841.4106.2233.6413.0901.2306-.1331.3361-.3942.2425-.6004z"/></g></svg>

<svg width="48" height="48" viewBox="0 0 48 48" fill="none" xmlns="http://www.w3.org/2000/svg">
<path d="M25.381 9.54292C24.6205 8.81902 23.3795 8.81903 22.619 9.54292L7.33556 24.0922C6.85399 24.5506 6.8733 25.1936 7.50716 25.4371C9.14442 26.066 13.366 27 24 27C34.634 27 38.8556 26.066 40.4928 25.4371C41.1267 25.1936 41.146 24.5506 40.6644 24.0922L25.381 9.54292Z" fill="#333333"/>
<path fill-rule="evenodd" clip-rule="evenodd" d="M23.9881 11.001L10.2263 24.1016C12.488 24.544 16.6236 25 24 25C31.3764 25 35.512 24.544 37.7737 24.1016L24.0119 11.001C24.0086 11.0004 24.0046 11 24 11C23.9954 11 23.9914 11.0004 23.9881 11.001ZM40.6644 24.0922C41.146 24.5506 41.1267 25.1936 40.4928 25.4371C38.8556 26.066 34.634 27 24 27C13.366 27 9.14442 26.066 7.50716 25.4371C6.8733 25.1936 6.85399 24.5506 7.33556 24.0922L22.619 9.54292C23.3795 8.81903 24.6205 8.81902 25.381 9.54292L40.6644 24.0922Z" fill="#333333"/>
<path fill-rule="evenodd" clip-rule="evenodd" d="M12 29.4071C14.6019 29.7427 18.4173 30.0001 24 30.0001C29.5827 30.0001 33.3981 29.7427 36 29.4071V40.5657C36 42 28 42 28 42V37C28 35.0876 26.3077 33 24 33C21.6923 33 20 35.0876 20 37V42C20 42 12 42 12 40.5657V29.4071Z" fill="#333333"/>
<path d="M23.0035 6.83045C22.9549 6.38341 23.415 6 24 6C24.585 6 25.0451 6.38341 24.9965 6.83045L24.5885 10.5848C24.563 10.8195 24.3071 11 24 11C23.6929 11 23.437 10.8195 23.4115 10.5848L23.0035 6.83045Z" fill="#333333"/>
<path d="M26.0001 7.18734C26.1771 6.79647 26.7057 6.67876 27.145 6.93239C27.5843 7.18602 27.7467 7.70265 27.4967 8.0514L25.3972 10.9802C25.266 11.1633 24.9876 11.2017 24.757 11.0686C24.5264 10.9354 24.4204 10.6752 24.5134 10.47L26.0001 7.18734Z" fill="#333333"/>
<path d="M22.167 7.19099C21.9888 6.79815 21.4593 6.67876 21.02 6.93239C20.5807 7.18602 20.4193 7.70434 20.6704 8.05505L22.7794 11.0004C22.9112 11.1845 23.19 11.2237 23.4207 11.0905C23.6513 10.9574 23.7568 10.6963 23.6632 10.4901L22.167 7.19099Z" fill="#333333"/>
</svg>
